!!!!SEGMENT: pl-kk--kk-i-2--048-002_anonim--ad-missam-in-natali-domini-agnus-dei.krn
!!!cenid: 16xx:1725
!!!COM: Anonim
!!!COM-rismID: pe30004985
!!!CDT:
!!!CNT:
!!!OPR: Ad missam In natali Domini
!!!OTL: Agnus Dei
!!!OMV: 002
!!!PDT:
!!!AGN: Sacred; Mass
!!!SMS-siglum: PL-Kk
!!!SMS-shelfmark: Kk.I.2
!!!SMS-shelfwork: 048-002 M
!!!NIFC-rismSourceID: 300258016
!!!NIFC-rismChildID: 300258066
!!!NIFC-islandoraID: pl-kk:750
!!!URL-pdf-islandora: https://repozytorium.nifc.pl/islandora/object/pl-kk%3A750/datastream/PDF/view#page=83
!!!URL-scan: https://polish.musicsources.pl/pl/lokalizacje/galeria/rekopisy/5828 @EN{Scan on Polish Music Sources Website} @PL{Skany w portalu Dziedzictwo Muzyki Polskiej w otwartym dostępie}
!!!ONB-nifc: Części mszy: Sanctus, Agnus Dei; skany: C: 0083-0084; A: 0187-0188; T: 0286; B: 0387
!!!AIN: 1 alto 1 bass 1 soprn 1 tenor
!!!key:
**kern	**text	**kern	**text	**kern	**text	**kern	**text
*part4	*part4	*part3	*part3	*part2	*part2	*part1	*part1
*staff4	*staff4	*staff3	*staff3	*staff2	*staff2	*staff1	*staff1
*Ibass	*	*Itenor	*	*Ialto	*	*Isoprn	*
*I"BASSUS.	*	*I"TENOR.	*	*I"ALTUS.	*	*I"CANTUS.	*
*I'B.	*	*I'T.	*	*I'A.	*	*I'C.	*
*clefF4	*	*clefC4	*	*clefC3	*	*clefC1	*
*k[b-]	*	*k[b-]	*	*k[b-]	*	*k[b-]	*
*d:	*	*d:	*	*d:	*	*d:	*
*M3/1	*	*M3/1	*	*M3/1	*	*M3/1	*
*>[A,A,B]	*	*>[A,A,B]	*	*>[A,A,B]	*	*>[A,A,B]	*
=1	=1	=1	=1	=1	=1	=1	=1
*xywh-pl-kk--i-2--0387:8056,731,6574,953	*	*xywh-pl-kk--i-2--0286:8064,1493,6185,880	*	*xywh-pl-kk--i-2--0187:10191,1383,3873,910	*	*xywh-pl-kk--i-2--0083:11738,1431,2306,976	*
*>A	*	*>A	*	*>A	*	*>A	*
*2\right	*	*2\right	*	*	*	*2\right	*
!!LO:TX:t=P:problem:all\right:global
!LO:TX:t=P:problem:litera A na początku pięciolinii	!	!LO:TX:t=P:problem:litera A na początku pięciolinii	!	!	!	!	!
!	!	!	!	!LO:TX:t=P:problem:litera A na początku pięciolinii	!	!LO:TX:t=P:problem:litera A na początku pięciolinii	!
!	!	!	!	!LO:TX:b:Bi:t=Agn(us)	!	!	!
!	!	!LO:TX:a:t=P:problem:♭ above	!	!LO:TX:a:Bi:t=3	!	!	!
0GG	A-	0B-X	A-	00.r	.	0g	A-
!LO:TX:t=P:problem:kreska pseudotaktowa	!	!LO:TX:t=P:problem:kreska pseudotaktowa	!	!	!	!LO:TX:t=P:problem:kreska pseudotaktowa	!
!	!	!	!	!	!	!LO:TX:a:t=P:problem:w źródle kreska pod nuta	!
1D	-gnus	1A	-gn(us)	.	.	1f#X	-gn(us)
=2	=2	=2	=2	=2-	=2-	=2	=2
1.GG	De-	1.B-	De-	.	.	0g	De-
2AA/	-i	2c\	.	.	.	.	.
!	!	!	!	!	!	!LO:TX:t=P:problem:kreska pseudotaktowa:między nutą a kropką	!
!LO:TX:t=P:problem:kreska pseudotaktowa	!	!	!	!	!	!LO:TX:a:t=P:problem:♮ above	!
1BB-	qui	1d	.	.	.	(<1.fn	.
=3	=3	=3-	=3-	=3-	=3-	=3	=3
!	!	!	!	!LO:TX:t=P:problem:kreska pseudotaktowa	!	!	!
0FF	tol-	0c	.	0.r	.	.	.
.	.	.	.	.	.	2g\)	.
.	.	.	.	.	.	1a	.
!	!	!	!	!	!	!LO:TX:t=P:problem:kreska pseudotaktowa	!
!	!	!LO:TX:t=P:problem:kreska pseudotaktowa	!	!	!	!LO:SIC:v:t=custos f	!
1GG	.	1B-	.	.	.	1g	.
!	!	!	!	!	!	!LO:LB:g=original	!
=4-	=4-	=4	=4	=4	=4	=4	=4
*	*	*	*	*2\right	*	*	*
!LO:TX:t=P:problem:kreska oddechu na różnych liniach [rozdzielacz słów / znak oddechu]:global	!	!	!	!	!	!	!
!	!	!LO:TX:t=P:problem:kreska oddechu na różnych liniach [rozdzielacz słów / znak oddechu]:global	!	!	!	!	!
*	*	*	*	*	*	*xywh-pl-kk--i-2--0083:8089,2194,6129,976	*
!	!	!	!	!	!	!LO:TX:t=P:problem:kreska oddechu na różnych liniach [rozdzielacz słów / znak oddechu]:global	!
0D,<	-lis	0A,<	-i	1r	.	0f,<	-i
.	.	.	.	1r	.	.	.
!LO:TX:t=P:problem:kreska pseudotaktowa	!	!LO:TX:t=P:problem:kreska pseudotaktowa	!	!LO:TX:t=P:problem:kreska pseudotaktowa	!	!LO:TX:t=P:problem:kreska pseudotaktowa	!
1BB-	Qui	1d	qui	1f	Qui	1b-	qui
=5	=5	=5	=5	=5	=5	=5	=5
1.BB-	tol-	1.d	tol-	1.f	tol-	1.b-	tol-
2BB-/	-lis	2d\	-lis	2f\	-lis	2b-\	-lis
!LO:TX:t=P:problem:kreska pseudotaktowa	!	!LO:TX:t=P:problem:kreska pseudotaktowa	!	!LO:TX:t=P:problem:kreska pseudotaktowa	!	!LO:TX:t=P:problem:kreska pseudotaktowa	!
1BB-	pec-	1d	pec-	1f	pec-	1b-	pec-
=6	=6	=6	=6	=6	=6	=6	=6
1F	-ca-	1c	-ca-	0f	-ca-	1a	-ca-
1F	-ta	1c	-ta	.	.	1a	-ta
*	*	*	*ij	*	*	*	*
!	!	!LO:TX:t=P:problem:kreska pseudotaktowa	!	!LO:TX:t=P:problem:kreska pseudotaktowa	!	!	!
1D	pec-	1d	pec-	1f	-ta	1b-	pec-
=7-	=7-	=7	=7	=7	=7	=7-	=7-
!	!	!	!	!LO:TX:a:t=P:problem:♮ above	!	!	!
1.E-X	-ca-	0B-	-ca-	0.e	m(un)-	0g	-ca-
2D/	.	.	.	.	.	.	.
!LO:TX:t=P:problem:kreska pseudotaktowa	!	!	!	!	!	!LO:TX:t=P:problem:kreska pseudotaktowa	!
1C	.	1c	-ta	.	.	1a	-ta
*	*	*	*Xij	*	*	*	*
=8	=8	=8-	=8-	=8-	=8-	=8	=8
*col	*	*col	*	*	*	*	*
!	!	!	!	!LO:TX:t=P:problem:kreska pseudotaktowa	!	!	!
1GG	-ta	1B-	mun-	0.d	.	0g	mun-
!	!	!LO:TX:t=P:problem:kreska pseudotaktowa	!	!	!	!	!
0D	mun-	0A	.	.	.	.	.
.	.	.	.	.	.	1f#X	.
*Xcol	*	*Xcol	*	*	*	*	*
=9-	=9-	=9	=9	=9	=9	=9-	=9-
!	!	!	!	!LO:TX:t=P:problem:kreska oddechu na różnych liniach [rozdzielacz słów / znak oddechu]:global	!	!	!
1GG,<	-di	1G	-di	1d,<	-di	1g	-di
2D\	mi-	1r	.	2f\	mi-	1r	.
2D\	-ſe-	.	.	2f\	-ſe-	.	.
!	!	!LO:TX:t=P:problem:kreska pseudotaktowa	!	!	!	!LO:TX:t=P:problem:kreska pseudotaktowa	!
!LO:TX:a:t=P:problem:♭ above	!	!	!	!	!	!	!
2E-X\	-re-	1r	.	2g\	-re-	1r	.
!LO:TX:t=P:problem:kreska pseudotaktowa	!	!	!	!LO:TX:t=P:problem:kreska pseudotaktowa	!	!	!
2E-\	-re	.	.	2g\	-re	.	.
=10	=10	=10	=10	=10	=10	=10	=10
*	*ij	*	*	*	*	*	*
1.F	mi-	1r	.	1.a	mi-	1r	.
.	.	2c\	mi-	.	.	2a\	mi-
2E-X\	-ſe-	2c\	-ſe-	2g\	-ſe-	2a\	-ſe-
2D\	-re-	2d\	-re-	2f\	-re-	2b-\	-re-
!	!	!	!	!LO:TX:t=P:problem:kreska pseudotaktowa	!	!	!
!	!	!LO:TX:t=P:problem:kreska pseudotaktowa	!	!	!	!LO:TX:t=P:problem:kreska pseudotaktowa	!
!	!	!	!	!LO:SIC:v:t=custos e	!	!	!
2D\	-re	2d\	-re	2f\	-re	2b-\	-re
*	*Xij	*	*	*	*	*	*
!	!	!	!	!LO:LB:g=original	!	!	!
=11-	=11-	=11	=11	=11	=11	=11	=11
*	*	*	*ij	*	*	*	*
*	*	*	*	*xywh-pl-kk--i-2--0187:8213,2178,5958,868	*	*	*
!	!	!LO:TX:a:t=P:problem:w źródle bemol nad nutą	!	!	!	!	!
0C	no-	1.e	mi-	0e	no-	1.cc	mi-
.	.	2e\	-ſe-	.	.	2b-\	-ſe-
!LO:TX:t=P:problem:kreska pseudotaktowa	!	!	!	!	!	!	!
1D	.	2d\	-re-	1f	.	2a\	-re-
!	!	!LO:TX:t=P:problem:kreska pseudotaktowa	!	!	!	!	!
.	.	2c\	-re	.	.	2a\	-re
*	*	*	*Xij	*	*	*	*
=12	=12	=12	=12	=12-	=12-	=12-	=12-
1GG,<	-bis	2B-\	no-	1.g	.	0g	no-
.	.	2B-\	-biſ	.	.	.	.
2G\	mi-	2B-\	mi-	.	.	.	.
2G\	-ſe-	2B-\	-ſe-	2f\	.	.	.
!	!	!	!	!LO:TX:t=P:problem:kreska pseudotaktowa	!	!LO:TX:t=P:problem:kreska pseudotaktowa	!
2A\	-re-	2c\	-re-	1e	.	1g	-bis
!LO:TX:t=P:problem:kreska pseudotaktowa	!	!LO:TX:t=P:problem:kreska pseudotaktowa	!	!	!	!	!
!LO:SIC:v:t=custos B	!	!LO:SIC:v:t=custos d	!	!	!	!	!
2A\	-re	2c\	-re	.	.	.	.
*xywh-pl-kk--i-2--0387:8235,1516,6097,1022	*	*xywh-pl-kk--i-2--0286:8134,2146,6215,1009	*	*	*	*	*
!LO:LB:g=original	!	!LO:LB:g=original	!	!	!	!	!
=13	=13	=13	=13	=13	=13	=13	=13
*	*ij	*	*ij	*	*	*	*ij
1.B-	mi-	1.d	mi-	1d,<	-bis	1.f	mi-
.	.	.	.	2d\	mi-	.	.
2A\	-ſe-	2d\	-ſe-	2d\	-ſe-	2f/	-ſe-
2G\	-re-	2c\	-re-	2e\	-re-	2g/	-re-
!LO:TX:t=P:problem:kreska pseudotaktowa	!	!LO:TX:t=P:problem:kreska pseudotaktowa	!	!LO:TX:t=P:problem:kreska pseudotaktowa	!	!LO:TX:t=P:problem:kreska pseudotaktowa	!
2G\	-re	2B-\	-re	2e\	-re	2g/	-re
*	*Xij	*	*Xij	*	*	*	*
=14	=14	=14	=14	=14	=14	=14	=14
*	*	*	*	*	*ij	*	*
0F	no-	0A	no-	1.f	mi-	1.a	mi-
.	.	.	.	2e\	-ſe-	2a\	-sſe-
!LO:TX:t=P:problem:kreska pseudotaktowa	!	!	!	!	!	!	!
1G	.	1B-	.	2d\	-re-	2g\	-re-
!	!	!	!	!LO:TX:t=P:problem:kreska pseudotaktowa	!	!LO:TX:t=P:problem:kreska pseudotaktowa	!
.	.	.	.	2d\	-re	2f\	-re
*	*	*	*	*	*Xij	*	*
=15	=15	=15-	=15-	=15	=15	=15	=15
1.A	.	1.c	.	0c#X	no-	0e	no-
2G\	.	2B-\	.	.	.	.	.
!LO:TX:t=P:problem:kreska pseudotaktowa	!	!LO:TX:t=P:problem:kreska pseudotaktowa	!	!	!	!	!
1F	.	1A	.	[<1d	.	1f	.
=16	=16	=16	=16	=16-	=16-	=16-	=16-
*col	*	*col	*	*	*	*	*
!	!	!	!	!	!	!LO:TX:t=P:problem:kreska pseudotaktowa	!
1G	.	1B-	.	0d]	.	0.e	.
0A	.	0A	.	.	.	.	.
!	!	!	!	!LO:TX:t=P:problem:kreska pseudotaktowa	!	!	!
.	.	.	.	1c#X	.	.	.
*Xcol	*	*	*	*	*	*	*
=17-	=17-	=17-	=17-	=17	=17	=17	=17
!LO:TX:t=P:problem:kreska pseudotaktowa	!	!LO:TX:t=P:problem:kreska pseudotaktowa	!	!	!	!	!
0.D	-bis	0.A	-bis	1d,<	-bis	1d,<	-bis
*	*	*	*	*	*	*	*Xij
.	.	.	.	2d\	mi-	2f/	mi-
.	.	.	.	2d\	-ſe-	2f/	-ſe-
.	.	.	.	2e\	-re-	2g/	-re-
!	!	!	!	!LO:TX:t=P:problem:kreska pseudotaktowa	!	!LO:TX:t=P:problem:kreska pseudotaktowa	!
!	!	!	!	!	!	!LO:SIC:v:t=custos a	!
.	.	.	.	2e\	-re	2g/	-re
*	*	*Xcol	*	*	*	*	*
*	*	*	*	*	*	*xywh-pl-kk--i-2--0083:8154,3003,6055,930	*
!	!	!	!	!	!	!LO:LB:g=original	!
=18	=18	=18	=18	=18	=18	=18	=18
*	*	*	*	*	*ij	*	*
1r	.	1r	.	1.f	mi-	1.a	mi-
2AA/	mi-	2c\	mi-	.	.	.	.
2AA/	-ſe-	2c\	-ſe-	2f\	-ſe-	2a\	-ſe-
2BB-/	-re-	2d\	-re-	2d\	-re-	2g\	-re-
!LO:TX:t=P:problem:kreska pseudotaktowa	!	!LO:TX:t=P:problem:kreska pseudotaktowa	!	!LO:TX:t=P:problem:kreska pseudotaktowa	!	!LO:TX:t=P:problem:kreska pseudotaktowa	!
2BB-/	-re	2d\	-re	2d\	-re	2f\	-re
*	*	*	*	*	*Xij	*	*
=19	=19	=19	=19	=19	=19	=19	=19
*	*ij	*	*ij	*	*	*	*
1.C	mi-	1.e	mi-	1.c	no-	1.e	mi-
2BB-/	-ſe-	2e\	-ſe-	2d\	.	2f/	-ſe-
2AA/	-re-	2d\	-re-	2e\	.	2g/	-re-
!LO:TX:t=P:problem:kreska pseudotaktowa	!	!	!	!LO:TX:t=P:problem:kreska pseudotaktowa	!	!LO:TX:t=P:problem:kreska pseudotaktowa	!
2AA/	-re	2c\	-re	2f\	.	2a/	-re
*	*Xij	*	*Xij	*	*	*	*
=20	=20	=20-	=20-	=20	=20	=20	=20
1.GG	no-	1.B-	no-	1.g	.	1.b-	no-
2AA/	.	2c\	.	2f\	.	2a\	.
!	!	!	!	!LO:TX:t=P:problem:kreska pseudotaktowa	!	!LO:TX:t=P:problem:kreska pseudotaktowa	!
2BB-/	.	2d\	.	1e	.	1g	.
!LO:TX:t=P:problem:kreska pseudotaktowa	!	!LO:TX:t=P:problem:kreska pseudotaktowa	!	!	!	!	!
2C/	.	2e\	.	.	.	.	.
=21	=21	=21	=21	=21	=21	=21	=21
1.D	.	1.f	.	1.d	.	1.f	.
2C/	.	2e\	.	4e\	.	4g\	.
.	.	.	.	4f\	.	4a\	.
!LO:TX:t=P:problem:kreska pseudotaktowa	!	!	!	!LO:TX:t=P:problem:kreska pseudotaktowa	!	!	!
!LO:TX:b:B:t=repetatur	!	!	!	!	!	!	!
1BB-	.	1d	.	1g	.	1b-	.
=22	=22	=22-	=22-	=22	=22	=22-	=22-
*col	*	*col	*	*	*	*	*
!	!	!	!	!	!	!LO:TX:t=P:problem:kreska pseudotaktowa	!
1C	.	1e-X	.	0g	.	0.a	.
!	!	!LO:TX:t=P:problem:kreska pseudotaktowa	!	!	!	!	!
0D	.	0d	.	.	.	.	.
!	!	!	!	!LO:TX:t=P:problem:kreska pseudotaktowa	!	!	!
!	!	!	!	!LO:SIC:v:t=custos g	!	!	!
.	.	.	.	1f#X	.	.	.
*Xcol	*	*Xcol	*	*	*	*	*
!	!	!	!	!LO:LB:g=original	!	!	!
=23-	=23-	=23	=23	=23	=23	=23	=23
!LO:TX:a:t=P:problem:w źródle podwójna kreska pseudotaktowa z repetycją	!	!LO:TX:a:t=P:problem:w źródle podwójna kreska pseudotaktowa z repetycją	!	!	!	!	!
!	!	!	!	!LO:TX:a:t=P:problem:w źródle podwójna kreska pseudotaktowa z repetycją	!	!	!
*	*	*	*	*xywh-pl-kk--i-2--0187:8088,2823,6066,1009	*	*	*
!	!	!	!	!	!	!LO:TX:a:t=P:problem:w źródle podwójna kreska pseudotaktowa z repetycją	!
1GG	-bis	1d;>	-bis	1g;>	-bis.	1g	-bis
=:|!	=:|!	=:|!	=:|!	=:|!	=:|!	=:|!	=:|!
*>B	*	*>B	*	*>B	*	*>B	*
1G	A-	1d	A-	1g	A-	1b-	A-
!LO:TX:t=P:problem:kreska pseudotaktowa	!	!LO:TX:t=P:problem:kreska pseudotaktowa	!	!LO:TX:t=P:problem:kreska pseudotaktowa	!	!	!
1G	-gnus	1d	-gn(us)	1g	-gn(us)	1b-	-gn(us)
=24	=24	=24	=24	=24	=24	=24-	=24-
0D	De-	0d	De-	0f#X	De-	0a	De-
!LO:TX:t=P:problem:kreska pseudotaktowa	!	!LO:TX:t=P:problem:kreska pseudotaktowa	!	!LO:TX:t=P:problem:kreska pseudotaktowa	!	!LO:TX:t=P:problem:kreska pseudotaktowa	!
1G	-i	1d	-i	1g	-i	1g	-i
=25	=25	=25	=25	=25	=25	=25	=25
1r	.	1r	.	1r	.	1r	.
1D	a-	1d	ag-	1d	A-	1a	a-
!LO:TX:t=P:problem:kreska pseudotaktowa	!	!	!	!	!	!	!
!LO:SIC:v:t=custos A	!	!	!	!LO:TX:t=P:problem:kreska pseudotaktowa	!	!LO:TX:t=P:problem:kreska pseudotaktowa	!
1D	-gnus	1d	-n(us)	1A	-gn(us)	1a	-gn(us)
*xywh-pl-kk--i-2--0387:8166,2320,6068,1003	*	*	*	*	*	*	*
!LO:LB:g=original	!	!	!	!	!	!	!
=26	=26	=26-	=26-	=26	=26	=26	=26
1A	De-	1c#X	De-	1f	De-	1a	De-
1A	-i	1c#	-i	1e	-i	1g	-i
!	!	!LO:TX:t=P:problem:kreska pseudotaktowa	!	!	!	!	!
!LO:TX:t=P:problem:kreska pseudotaktowa	!	!	!	!LO:TX:t=P:problem:kreska pseudotaktowa	!	!LO:TX:t=P:problem:kreska pseudotaktowa	!
!	!	!LO:SIC:v:t=custos c	!	!	!	!	!
1B-	qui	1d	qui	1d	qui	1f	qui
*	*	*xywh-pl-kk--i-2--0286:8104,2908,6057,1029	*	*	*	*	*
!	!	!LO:LB:g=original	!	!	!	!	!
=27	=27	=27	=27	=27	=27	=27	=27
1A	tol-	1c	tol-	1e	tol-	1a	tol-
1A	-lis	1c	-lis	1e	-lis	1a	-liſ
!LO:TX:t=P:problem:kreska pseudotaktowa	!	!LO:TX:t=P:problem:kreska pseudotaktowa	!	!LO:TX:t=P:problem:kreska pseudotaktowa	!	!	!
1F	pec-	1d	pec-	1a	pec-	1a	pec-
=28	=28	=28	=28	=28	=28	=28-	=28-
0G	-ca-	(<1B-	-ca-	0g	-ca-	0b-	-ca-
.	.	1G)	.	.	.	.	.
!	!	!	!	!	!	!LO:TX:t=P:problem:kreska pseudotaktowa	!
1A	-ta	1c	-ta	1f	-ta	1a	-ta
=29-	=29-	=29-	=29-	=29-	=29-	=29	=29
!	!	!LO:TX:t=P:problem:kreska pseudotaktowa	!	!	!	!	!
0.B-	mun-	0.d	mun-	0f	mun-	0a	mun-
.	.	.	.	2e\	.	1g	.
.	.	.	.	2d\	.	.	.
=30	=30	=30	=30	=30-	=30-	=30-	=30-
!LO:TX:t=P:problem:kreska pseudotaktowa	!	!LO:TX:t=P:problem:kreska pseudotaktowa	!	!LO:TX:t=P:problem:kreska pseudotaktowa	!	!LO:TX:t=P:problem:kreska pseudotaktowa	!
0.A	-di	0.c#X,<	-di	0.e	-di	0.a	-di
=31	=31	=31	=31	=31	=31	=31	=31
1r	.	1r	.	1r	.	1r	.
*	*	*	*	*	*ij	*	*
1F	A-	1c	A-	1f	pec-	1a	a-
!LO:TX:t=P:problem:kreska pseudotaktowa	!	!LO:TX:t=P:problem:kreska pseudotaktowa	!	!LO:TX:t=P:problem:kreska pseudotaktowa	!	!LO:TX:t=P:problem:kreska pseudotaktowa	!
1F	-gn(us)	1c	-gn(us)	1f	-ca-	1a	-gn(us)
=32	=32	=32	=32	=32	=32	=32	=32
1C	De-	1c	De-	1e	-ta	1g	De-
1C	-i	1c	-i	1e	mun-	1g	-i
!	!	!	!	!	!	!LO:TX:t=P:problem:kreska pseudotaktowa	!
!LO:TX:t=P:problem:kreska pseudotaktowa	!	!	!	!LO:TX:t=P:problem:kreska pseudotaktowa	!	!	!
!	!	!	!	!	!	!LO:SIC:v:t=custos b	!
1C	qui	1c	qui	1e	-di	1g	qui
*	*	*	*	*	*Xij	*	*
*	*	*	*	*	*	*xywh-pl-kk--i-2--0083:8135,3738,6259,1013	*
!	!	!	!	!	!	!LO:LB:g=original	!
=33	=33	=33-	=33-	=33	=33	=33	=33
1G	tol-	1d	tol-	1g	pec-	1b-	tol-
1G	-lis	1d	-lis	1g	-ca-	1b-	-lis
!LO:TX:t=P:problem:kreska pseudotaktowa	!	!LO:TX:t=P:problem:kreska pseudotaktowa	!	!LO:TX:t=P:problem:kreska pseudotaktowa	!	!LO:TX:t=P:problem:kreska pseudotaktowa	!
1G	pec-	1d	pec-	1g	-ta	1b-	pec-
=34	=34	=34	=34	=34	=34	=34	=34
1D	-ca-	1d	-ca-	1f	pec-	1a	-ca-
1D,<	-ta	1d	-ta	1f	-ca-	1a,<	-ta
!LO:TX:t=P:problem:kreska pseudotaktowa	!	!	!	!LO:TX:t=P:problem:kreska pseudotaktowa	!	!	!
1BB-	pec-	1d	pec-	1f	-ta	1dd	pec-
=35	=35	=35-	=35-	=35	=35	=35-	=35-
0C	-ca-	0e-X	-ca-	0e	mun-	0cc	-ca-
!	!	!	!	!LO:TX:t=P:problem:kreska pseudotaktowa	!	!LO:TX:t=P:problem:kreska pseudotaktowa	!
1D	-ta	1d	-ta	1f	.	1b-	-ta
=36-	=36-	=36	=36	=36	=36	=36	=36
!LO:TX:t=P:problem:kreska pseudotaktowa	!	!	!	!LO:TX:t=P:problem:kreska pseudotaktowa	!	!	!
0.E-X	mun-	(<0d	m(un)-	0.g	.	0b-	mun-
!	!	!LO:TX:t=P:problem:kreska pseudotaktowa	!	!	!	!	!
.	.	1c#X)	.	.	.	2a\	.
!	!	!	!	!	!	!LO:TX:t=P:problem:kreska pseudotaktowa	!
.	.	.	.	.	.	2g\	.
=37	=37	=37	=37	=37	=37	=37	=37
1D,<	-di	1d,<	-di	1f,<	-di	1a,<	-di
1BB-	do-	1d	do-	1f	do-	1b-	do-
!LO:TX:t=P:problem:kreska pseudotaktowa	!	!	!	!LO:TX:t=P:problem:kreska pseudotaktowa	!	!LO:TX:t=P:problem:kreska pseudotaktowa	!
1BB-	-na	1d	-na	1f	-na	1b-	-na
=38	=38	=38-	=38-	=38	=38	=38	=38
!	!	!	!	!LO:TX:t=P:problem:kreska pseudotaktowa	!	!	!
1.F	no-	0c	no-	0.f	no-	0a	no-
2E\	.	.	.	.	.	.	.
!	!	!LO:TX:t=P:problem:kreska pseudotaktowa	!	!	!	!LO:TX:t=P:problem:kreska pseudotaktowa	!
1D	.	1d	-bis	.	.	1b-	-bis
*	*	*	*	*xywh-pl-kk--i-2--0187:8188,3701,5917,1067	*	*	*
!	!	!	!	!LO:LB:g=original	!	!	!
=39-	=39-	=39	=39	=39	=39	=39	=39
*	*	*col	*	*	*	*	*
1E-X	-bis	1B-	pa-	1e-X	-bis	0g	pa-
(<1C	pa-	0A	.	(>1e-	pa-	.	.
!LO:TX:t=P:problem:kreska pseudotaktowa	!	!	!	!	!	!	!
!LO:SIC:v:t=custos GG	!	!	!	!LO:TX:t=P:problem:kreska pseudotaktowa	!	!	!
1D)	.	.	.	1d)	.	1f#X	.
*	*	*Xcol	*	*	*	*	*
*xywh-pl-kk--i-2--0387:8166,3105,6187,1003	*	*	*	*	*	*	*
!LO:LB:g=original	!	!	!	!	!	!	!
=40	=40	=40-	=40-	=40	=40	=40-	=40-
1GG,<	-cem	1G	-cem	1d,<	-cem	1g	-cem
1D	do-	1r	.	1f	do-	1r	.
!LO:TX:t=P:problem:kreska pseudotaktowa	!	!LO:TX:t=P:problem:kreska pseudotaktowa	!	!LO:TX:t=P:problem:kreska pseudotaktowa	!	!LO:TX:t=P:problem:kreska pseudotaktowa	!
1E	-na	1r	.	1g	-na	1r	.
=41	=41	=41	=41	=41	=41	=41	=41
!LO:TX:t=P:problem:kreska pseudotaktowa	!	!	!	!	!	!	!
0.F	no-	1r	.	0a	no-	1r	.
.	.	1c	do-	.	.	1a	do-
.	.	1d	-na	2g\	.	1b-	-na
!	!	!	!	!LO:TX:t=P:problem:kreska pseudotaktowa	!	!	!
.	.	.	.	2f\	.	.	.
=42	=42	=42-	=42-	=42	=42	=42-	=42-
1C,<	-bis	0e	no-	0e	.	0cc	no-
1C	do-	.	.	.	.	.	.
!	!	!LO:TX:t=P:problem:kreska pseudotaktowa	!	!	!	!	!
!LO:TX:t=P:problem:kreska pseudotaktowa	!	!	!	!LO:TX:t=P:problem:kreska pseudotaktowa	!	!LO:TX:t=P:problem:kreska pseudotaktowa	!
!	!	!LO:SIC:v:t=custos d	!	!	!	!	!
1C	-na	1e	-bis	1e	-bis	1cc	-bis
*	*	*xywh-pl-kk--i-2--0286:8153,3750,6403,950	*	*	*	*	*
!	!	!LO:LB:g=original	!	!	!	!	!
=43	=43	=43	=43	=43	=43	=43	=43
0D	no-	1d	do-	2f\	pa-	(>2a\	pa-
.	.	.	.	2e\	.	2g\	.
.	.	1d	-na	2f\	.	2a\	.
.	.	.	.	2g\	.	2b-\)	.
!	!	!	!	!LO:TX:t=P:problem:kreska pseudotaktowa	!	!LO:TX:t=P:problem:kreska pseudotaktowa	!
1AA	-bis	1c	no-	1a	.	1cc	.
=44-	=44-	=44-	=44-	=44	=44	=44	=44
*col	*	*col	*	*	*	*col	*
1BB-	pa-	1d	-bis	[<1f	.	2b-\	.
.	.	.	.	.	.	2a\	.
!LO:TX:t=P:problem:kreska pseudotaktowa	!	!	!	!	!	!	!
!	!	!LO:TX:t=P:problem:kreska pseudotaktowa	!	!	!	!	!
!	!	!	!	!	!	!LO:TX:t=P:problem:kreska pseudotaktowa	!
!	!	!	!	!	!	!LO:SIC:v:t=custos a	!
!	!	!	!	!	!	!LO:TX:a:t=P:problem:w źródle pod znakiem custos 'cem'	!
0C	.	0c	.	1f]	.	0g	.
!	!	!	!	!LO:TX:t=P:problem:kreska pseudotaktowa	!	!	!
.	.	.	.	1e	.	.	.
*Xcol	*	*Xcol	*	*	*	*Xcol	*
*	*	*	*	*	*	*xywh-pl-kk--i-2--0084:1913,585,5878,1069	*
!	!	!	!	!	!	!LO:PB:g=original	!
=45	=45	=45	=45	=45	=45	=45	=45
1FF,<	-cem	1c	pa-	1f,<	-c(em)	1a	-cem
1F	do-	1A	-c(em)	1f	do-	1cc	do-
!LO:TX:t=P:problem:kreska pseudotaktowa	!	!LO:TX:t=P:problem:kreska pseudotaktowa	!	!LO:TX:t=P:problem:kreska pseudotaktowa	!	!LO:TX:t=P:problem:kreska pseudotaktowa	!
1BB-X	-na	1B-	do-	1f	-na	1dd	-na
=46	=46	=46	=46	=46	=46	=46	=46
1.F	no-	0A	-na	1.f	no-	0cc	no-
2E\	.	.	.	2g\	.	.	.
2D/	.	2B-\	no-	2f\	.	2dd\	.
!	!	!	!	!LO:TX:t=P:problem:kreska pseudotaktowa	!	!	!
2C,</	.	2c\	.	2e\	.	2ee\	.
=47-	=47-	=47-	=47-	=47	=47	=47-	=47-
!LO:N:acc=#	!	!	!	!	!	!	!
0BBn	.	0d	.	0d	.	0ff	.
!	!	!LO:TX:t=P:problem:kreska pseudotaktowa	!	!	!	!LO:TX:t=P:problem:kreska pseudotaktowa	!
1C	.	1c	-bis	1e	-bis	1ee-X	-bis
=48-	=48-	=48	=48	=48-	=48-	=48	=48
*col	*	*	*	*	*	*col	*
1FF	-bis	0c	pa-	2f\	pa-	1ee-X	pa-
.	.	.	.	2e\	.	.	.
!LO:TX:t=P:problem:kreska pseudotaktowa	!	!	!	!	!	!	!
!	!	!	!	!	!	!LO:TX:t=P:problem:kreska pseudotaktowa	!
0GG	pa-	.	.	2d\	.	0dd	.
.	.	.	.	2c\	.	.	.
!	!	!LO:N:acc=#	!	!LO:TX:t=P:problem:kreska pseudotaktowa	!	!	!
.	.	1Bn	.	1d	.	.	.
*Xcol	*	*	*	*	*	*Xcol	*
=49	=49	=49-	=49-	=49	=49	=49	=49
1C,<	-c(em)	1c,<	-cem	1e,<	-c(em)	1cc,<	-cem
*	*ij	*	*	*	*	*	*
1G	do-	1d	do-	1g	do-	1b-	do-
!	!	!LO:TX:t=P:problem:kreska pseudotaktowa	!	!LO:TX:t=P:problem:kreska pseudotaktowa	!	!LO:TX:t=P:problem:kreska pseudotaktowa	!
1G	-na	1d	-na	1g	-na	1b-	-na
=50-	=50-	=50	=50	=50	=50	=50	=50
0B-	no-	0d	do-	2f\	no-	0dd	no-
.	.	.	.	2e\	.	.	.
.	.	.	.	2f\	.	.	.
.	.	.	.	2g\	.	.	.
!LO:TX:t=P:problem:kreska pseudotaktowa	!	!LO:TX:t=P:problem:kreska pseudotaktowa	!	!LO:TX:t=P:problem:kreska pseudotaktowa	!	!LO:TX:t=P:problem:kreska pseudotaktowa	!
1F#X	bis	1A	-na	1a	.	1cc	-bis
=51	=51	=51	=51	=51	=51	=51	=51
*	*	*	*	*	*	*	*ij
2G\	pa-	1B-	no-	1.g	.	1.b-	do-
2F\	.	.	.	.	.	.	.
2E-X\	.	2c\	.	.	.	.	.
2D\	.	2d\	.	2f\	.	2b-\	-na
!LO:TX:t=P:problem:kreska pseudotaktowa	!	!	!	!	!	!	!
1C	.	1e-X	.	2e\	.	1cc	no-
!	!	!	!	!LO:TX:t=P:problem:kreska pseudotaktowa	!	!	!
!	!	!	!	!LO:SIC:v:t=custos g	!	!	!
.	.	.	.	2f\	-bis	.	.
*	*	*	*	*xywh-pl-kk--i-2--0188:1672,539,5536,1042	*	*	*
!	!	!	!	!LO:PB:g=original	!	!	!
=52	=52	=52-	=52-	=52	=52	=52-	=52-
*col	*	*col	*	*	*	*col	*
1GG	.	1d	-bis	0g	pa-	1b-	-bis
*	*	*	*	*	*	*	*Xij
!LO:TX:t=P:problem:kreska pseudotaktowa	!	!	!	!	!	!	!
!LO:SIC:v:t=custos GG	!	!	!	!	!	!	!
!	!	!LO:TX:t=P:problem:kreska pseudotaktowa	!	!	!	!	!
!	!	!	!	!	!	!LO:TX:t=P:problem:kreska pseudotaktowa	!
0D	.	0d	pa-	.	.	0a	pa-
!	!	!	!	!LO:TX:t=P:problem:kreska pseudotaktowa	!	!	!
.	.	.	.	1f#X	.	.	.
*Xcol	*	*Xcol	*	*	*	*Xcol	*
*xywh-pl-kk--i-2--0387:8156,3899,5402,1092	*	*	*	*	*	*	*
!LO:LB:g=original	!	!	!	!	!	!	!
=53	=53	=53	=53	=53	=53	=53	=53
1GG,<	-c(em)	1d,<	-cem	1g	-c(em)	1g	-cam
*	*Xij	*	*	*	*	*	*
*	*	*	*ij	*	*	*	*
1D	do-	1d	do-	1fn	do-	1a	do-
!LO:TX:t=P:problem:kreska pseudotaktowa	!	!LO:TX:t=P:problem:kreska pseudotaktowa	!	!LO:TX:t=P:problem:kreska pseudotaktowa	!	!	!
1G	-na	1d	-na	1g	-na	1b-	-na
=54	=54	=54	=54	=54	=54	=54-	=54-
0F	no-	1.A	no-	1.a	no-	0cc	no-
.	.	2B-\	.	2g\	.	.	.
!LO:TX:t=P:problem:kreska pseudotaktowa	!	!	!	!LO:TX:t=P:problem:kreska pseudotaktowa	!	!LO:TX:t=P:problem:kreska pseudotaktowa	!
1AA	-bis	1c	bis	1f	.	1a	-bis
=55	=55	=55-	=55-	=55	=55	=55	=55
*col	*	*col	*	*	*	*col	*
1BB-	pa-	1d	pa-	1f	-bis	1b-	pa-
!	!	!LO:TX:t=P:problem:kreska pseudotaktowa	!	!	!	!	!
0C	.	0c	.	(<1f	pa-	0g	.
!	!	!	!	!LO:TX:t=P:problem:kreska pseudotaktowa	!	!	!
.	.	.	.	1e)	.	.	.
*Xcol	*	*Xcol	*	*	*	*Xcol	*
=56-	=56-	=56	=56	=56	=56	=56-	=56-
1F,<	-c(em)	1c,<	-cem	1f	-c(em)	1a	-c(em)
*	*	*	*Xij	*	*	*	*
1BB-	do-	1B-	do-	1f	do-	1dd	do-
!LO:TX:t=P:problem:kreska pseudotaktowa	!	!LO:TX:t=P:problem:kreska pseudotaktowa	!	!LO:TX:t=P:problem:kreska pseudotaktowa	!	!LO:TX:t=P:problem:kreska pseudotaktowa	!
1BB-	-na	1B-	-na	1f	-na	1dd	-na
=57	=57	=57	=57	=57	=57	=57	=57
*	*	*col	*	*	*	*	*
1.F	no-	0A	no-	1.a	no-	0cc	no-
2E-X\	.	.	.	2g\	.	.	.
!LO:TX:t=P:problem:kreska pseudotaktowa	!	!	!	!LO:TX:t=P:problem:kreska pseudotaktowa	!	!LO:TX:t=P:problem:kreska pseudotaktowa	!
1D	.	0B-	-bis	1f#X	.	1dd	-bis
=58	=58	=58-	=58-	=58	=58	=58	=58
*	*	*	*	*	*	*col	*
1E-X	-bis	.	.	1g	-bis	1b-	pa-
!	!	!	!	!	!	!LO:SIC:v:t=custos g	!
(<1C	pa-	(<1c	pa-	(<1g	pa-	0a	.
!LO:TX:t=P:problem:kreska pseudotaktowa	!	!	!	!	!	!	!
!	!	!LO:TX:t=P:problem:kreska pseudotaktowa	!	!LO:TX:t=P:problem:kreska pseudotaktowa	!	!	!
1D)	.	1A)	.	1f#X)	.	.	.
*	*	*Xcol	*	*	*	*Xcol	*
*	*	*xywh-pl-kk--i-2--0286:12607,4581,2068,742	*	*	*	*xywh-pl-kk--i-2--0084:1960,1488,5850,874	*
!	!	!LO:LB:g=original	!	!	!	!LO:LB:g=original	!
=59	=59	=59	=59	=59	=59	=59-	=59-
1GG	-cem	1B-	-cem	1g	-c(em)	1g	-cem
*	*ij	*	*ij	*	*ij	*	*ij
1BB-	do-	1B-	do-	1fn	do-	1dd	do-
!LO:TX:t=P:problem:kreska pseudotaktowa	!	!LO:TX:t=P:problem:kreska pseudotaktowa	!	!LO:TX:t=P:problem:kreska pseudotaktowa	!	!LO:TX:t=P:problem:kreska pseudotaktowa	!
1BB-	-na	1B-	-na	1f	-na	1dd	-na
=60	=60	=60	=60	=60	=60	=60	=60
*	*	*col	*	*	*	*	*
!LO:TX:a:t=P:problem:w źródle pod nutą dopisek 'Echo'	!	!LO:TX:a:t=P:problem:w źródle pod nutą dopisek 'Echo'	!	!	!	!	!
!	!	!	!	!LO:TX:a:t=P:problem:w źródle pod nutą dopisek 'Echo'	!	!	!
1.F	no-	0A	no-	1.a	no-	0cc	no-
2E-X\	.	.	.	2g\	.	.	.
!	!	!	!	!LO:TX:t=P:problem:kreska pseudotaktowa	!	!	!
1D	.	0B-	-bis	1f#X	.	1dd	-bis
=61-	=61-	=61-	=61-	=61	=61	=61-	=61-
*	*	*	*	*	*	*col	*
1E-X	-bis	.	.	1g	-bis	1b-	pa-
1C	pa-	1c	pa-	1g	pa-	0a	.
!LO:TX:t=P:problem:kreska pseudotaktowa	!	!	!	!	!	!	!
1D	.	1A	.	1f#X	.	.	.
*	*	*Xcol	*	*	*	*Xcol	*
=62	=62	=62	=62	=62-	=62-	=62-	=62-
!	!	!LO:N:acc=#	!	!	!	!	!
!	!	!	!	!LO:TX:a:t=P:problem:w źrodle niejasne ozdobienie nuty; przyjęto dwie fermaty	!	!	!
1GG;	-cem	1Bnl;;	-cem	1g;;	-cem	1g;;	-cem
*	*Xij	*	*Xij	*	*Xij	*	*Xij
1r	.	1r	.	1r	.	1r	.
!LO:TX:a:t=P:problem:w źrodle ozdobna kreska taktowa	!	!	!	!	!	!	!
1r	.	1r	.	1r	.	1r	.
==	==	==	==	==	==	==	==
*-	*-	*-	*-	*-	*-	*-	*-
!!!system-decoration: [(s1,s2,s3,s4)]
!!!RDF**kern: > = above
!!!RDF**kern: < = below
!!!RDF**kern: | = vertical stroke
!!!RDF**kern: N = linked
!!!RDF**kern: i = editorial accidental
!!!RDF**kern: l = terminal long
!!!ENC: Berenika Jozajtis
!!!END: 2022-05-03
!!!EED: Wojciech Jakubiak-Danek
!!!EEV: 2022-05-10
!!!YEC: Copyright 2022 Narodowy Instytut Fryderyka Chopina (https://polishscores.org)
!!!YEM: License CC-BY-4.0 (https://creativecommons.org/licenses/by/4.0)
!!!IIIF: https://repozytorium.nifc.pl/islandora/object/pl-kk%3A750/datastream/IIIF/view#page=81
!!!ENC-iiif: Marta Opryszak
!!!END-iiif: 2022-08-26
